X: 6193
T: Carefree, The
R: slip jig
M: 9/8
K: Gmajor
|:d2B cBA BGE|D2G GFG ABc|d2B cBA BGE|1 D2G FAF G2B:|2 D2G FAF G2d||
|:e2c A2e edc|d2B G2B dcB|c2A F2A cBA|1 BAG cBA de=f:|2 B/c/dB cAF G2B||

